icon_installer/data/icons/scalable/actions/show-screenshooter-symbolic.svg

<?xml version="1.0" encoding="UTF-8"?>
<svg height="16px" viewBox="0 0 16 16" width="16px" xmlns="http://www.w3.org/2000/svg">
    <g fill="#222222">
        <path d="m 10.042969 6 c -0.566407 0 -1.019531 0.425781 -1.039063 0.964844 h -0.992187 c -1.113281 0 -2.011719 0.898437 -2.011719 2.011718 v 4.011719 c 0 1.113281 0.898438 2.011719 2.011719 2.011719 h 5.976562 c 1.113281 0 2.011719 -0.898438 2.011719 -2.011719 v -4.011719 c 0 -1.113281 -0.898438 -2.011718 -2.011719 -2.011718 h -0.988281 c -0.019531 -0.539063 -0.476562 -0.964844 -1.042969 -0.964844 z m 0.957031 3 c 1.105469 0 2 0.894531 2 2 s -0.894531 2 -2 2 s -2 -0.894531 -2 -2 s 0.894531 -2 2 -2 z m 0 0"/>
        <path d="m 3.007812 11.984375 h -0.316406 c -1.507812 0 -2.722656 -1.210937 -2.722656 -2.722656 v -0.269531 c 0 -0.550782 0.445312 -1 1 -1 c 0.550781 0 1 0.449218 1 1 v 0.269531 c 0 0.394531 0.328125 0.722656 0.722656 0.722656 h 0.316406 c 0.550782 0 1 0.449219 1 1 c 0 0.554687 -0.449218 1 -1 1 z m 0 0"/>
        <path d="m 14 3.039062 v -0.316406 c 0 -0.394531 -0.328125 -0.722656 -0.722656 -0.722656 h -0.269532 c -0.554687 0 -1 -0.449219 -1 -1 s 0.445313 -1 1 -1 h 0.269532 c 1.507812 0 2.722656 1.214844 2.722656 2.722656 v 0.316406 c 0 0.554688 -0.449219 1 -1 1 s -1 -0.445312 -1 -1 z m 0 0"/>
        <path d="m 0 3.039062 v -0.316406 c 0 -1.507812 1.214844 -2.722656 2.722656 -2.722656 h 0.269532 c 0.554687 0 1 0.449219 1 1 s -0.445313 1 -1 1 h -0.269532 c -0.394531 0 -0.722656 0.328125 -0.722656 0.722656 v 0.316406 c 0 0.554688 -0.449219 1 -1 1 s -1 -0.445312 -1 -1 z m 0 0"/>
    </g>
</svg>

<svg xmlns="http://www.w3.org/2000/svg" width="16" height="16"><path fill="#222" d="M10.043 6c-.566 0-1.02.426-1.04.965h-.991A2.009 2.009 0 0 0 6 8.977v4.011C6 14.102 6.898 15 8.012 15h5.976A2.009 2.009 0 0 0 16 12.988V8.977a2.009 2.009 0 0 0-2.012-2.012H13c-.02-.54-.477-.965-1.043-.965zM11 9a2 2 0 1 1-2 2 2 2 0 0 1 2-2zm-7.992 2.984H2.69A2.715 2.715 0 0 1-.03 9.262v-.27a1 1 0 1 1 2 0v.27c0 .394.328.722.722.722h.317a1 1 0 1 1 0 2zM14 3.04v-.317A.729.729 0 0 0 13.277 2h-.27a1 1 0 1 1 0-2h.27A2.717 2.717 0 0 1 16 2.723v.316a1 1 0 1 1-2 0zm-14 0v-.317A2.717 2.717 0 0 1 2.723 0h.27a1 1 0 1 1 0 2h-.27A.729.729 0 0 0 2 2.723v.316a1 1 0 1 1-2 0zm0 0"/></svg>
